www/assets/icons/psychology_alt.svg

<svg width="24" height="24" viewBox="0 0 24 24" xmlns="http://www.w3.org/2000/svg" fill='currentColor'><path d="M19.9399 9.06C19.4999 5.73 16.5699 3 12.9999 3C9.46991 3 6.56991 5.61 6.07991 9L4.14991 12.48C3.73991 13.14 4.21991 14 4.99991 14H5.99991V16C5.99991 17.1 6.89991 18 7.99991 18H8.99991V21H15.9999V16.32C18.6199 15.07 20.3499 12.24 19.9399 9.06ZM12.4999 14C12.0899 14 11.7599 13.67 11.7599 13.26C11.7599 12.85 12.0899 12.53 12.4999 12.53C12.9099 12.53 13.2299 12.85 13.2299 13.26C13.2299 13.67 12.9199 14 12.4999 14ZM14.2599 9.68C13.8199 10.33 13.3999 10.53 13.1699 10.95C13.0799 11.12 13.0399 11.23 13.0399 11.77H11.9799C11.9799 11.48 11.9399 11.02 12.1599 10.61C12.4399 10.1 12.9899 9.8 13.2999 9.35C13.6299 8.88 13.4499 7.99 12.4999 7.99C11.8799 7.99 11.5799 8.46 11.4499 8.85L10.4899 8.45C10.7599 7.67 11.4599 7 12.4999 7C13.3599 7 13.9499 7.39 14.2499 7.88C14.5099 8.31 14.6599 9.1 14.2599 9.68Z"/></svg>

<svg xmlns="http://www.w3.org/2000/svg" width="24" height="24" viewBox="0 0 24 24" fill='currentColor'><path d="M19.94 9.06C19.5 5.73 16.57 3 13 3 9.47 3 6.57 5.61 6.08 9l-1.93 3.48c-.41.66.07 1.52.85 1.52h1v2c0 1.1.9 2 2 2h1v3h7v-4.68a7.02 7.02 0 0 0 3.94-7.26M12.5 14c-.41 0-.74-.33-.74-.74s.33-.73.74-.73.73.32.73.73-.31.74-.73.74m1.76-4.32c-.44.65-.86.85-1.09 1.27-.09.17-.13.28-.13.82h-1.06c0-.29-.04-.75.18-1.16.28-.51.83-.81 1.14-1.26.33-.47.15-1.36-.8-1.36-.62 0-.92.47-1.05.86l-.96-.4c.27-.78.97-1.45 2.01-1.45.86 0 1.45.39 1.75.88.26.43.41 1.22.01 1.8"/></svg>
